X:1
T:Title
%%score ( 1 2 ) { 3 | 4 }
L:1/8
M:6/8
K:G
V:1 treble nm="Bright Piano"
V:2 treble 
V:3 bass nm="Bright Piano"
V:4 bass 
V:1
 z3 z2[Q:1/4=84] D | [DB]2 [DB] Bc[CF] | [CA]3 [B,G]2 [DB] | [Fd]2 [Fd] de[FA] | [Fc]3 [GB]2 [DB] | %5
 z3 G2 .A | [DF]3 z2 D | [Dd]2 [Dd] [Dd][GB][DG] | [DG]3 [DF]2 D | [Dd]2 [Dd] [Dd][GB][DG] | %10
 [DG]3 [DF]2 D | [Dd]2 [=F^d] ec[EA] | [DG]3 [GB]2 [FA] |[M:5/8] G3 z2 |] %14
V:2
 x6 | z3 .D3 | x6 | z3 .F3 | x6 | [DA]2 [Dd] ^cB^C/-[CG]/ | x6 | x6 | x6 | x6 | x6 | z3 .E3 | x6 | %13
[M:5/8] x5 |] %14
V:3
 z3 z2 D, | G,2 G, G,F,A, | F,3 G,2 B, | A,2 A, A,CC | A,3 G,2 G, | F,2 F, E,2 E,/A,/ | A,3 z2 D, | %7
 B,2 B, B,2 B, | C3 C2 D, | B,2 B, B,DB, | C3 C2 D, | B,2 B, G,A,[K:treble]C | B,3 D2 C | %13
[M:5/8] B,3 z2 |] %14
V:4
 z6 | G,,2 G,, G,,A,,D, | D,3 G,,2 G, | D,2 D, D,2 D, | D,3 G,,2 G,, | A,,2 A,, A,,2 A,, | D,3 z3 | %7
 G,,2 G,, G,,2 G,, | A,,3 .A,,3 | G,,2 G,, G,,2 G,, | A,,3 .A,,3 | G,,2 G,, C,2 C, | D,3- D,2 D, | %13
[M:5/8] G,3 z2 |] %14

